( Made using CamBam - http://www.cambam.co.uk )
( paystsn 12/08/2021 5:41:49 PM )
( Post processor: Default )
( T0 : 2.0 )
G21 G90 G64 G40
G0 Z3.0
( T0 : 2.0 )
T0 M6
( dp1 )
G17
M3 S1000
G0 X9.0 Y27.0
G0 Z0.0
G1 F300.0 Z-1.4
G1 F800.0 Y53.0
G1 X43.0
G1 Y27.0
G1 X9.0
G1 F300.0 Z-1.8
G1 F800.0 Y53.0
G1 X43.0
G1 Y27.0
G1 X9.0
G1 F300.0 Z-2.2
G1 F800.0 Y53.0
G1 X43.0
G1 Y27.0
G1 X9.0
G1 F300.0 Z-2.6
G1 F800.0 Y53.0
G1 X43.0
G1 Y27.0
G1 X9.0
G1 F300.0 Z-3.0
G1 F800.0 Y53.0
G1 X43.0
G1 Y27.0
G1 X9.0
G1 F300.0 Z-3.4
G1 F800.0 Y53.0
G1 X43.0
G1 Y27.0
G1 X9.0
G1 F300.0 Z-3.8
G1 F800.0 Y53.0
G1 X43.0
G1 Y27.0
G1 X9.0
G1 F300.0 Z-4.2
G1 F800.0 Y53.0
G1 X43.0
G1 Y27.0
G1 X9.0
G1 F300.0 Z-4.6
G1 F800.0 Y53.0
G1 X43.0
G1 Y27.0
G1 X9.0
G1 F300.0 Z-5.0
G1 F800.0 Y53.0
G1 X43.0
G1 Y27.0
G1 X9.0
G1 F300.0 Z-5.4
G1 F800.0 Y53.0
G1 X43.0
G1 Y27.0
G1 X9.0
G1 F300.0 Z-5.8
G1 F800.0 Y53.0
G1 X43.0
G1 Y27.0
G1 X9.0
G1 F300.0 Z-6.2
G1 F800.0 Y53.0
G1 X43.0
G1 Y27.0
G1 X9.0
G1 F300.0 Z-6.6
G1 F800.0 Y53.0
G1 X43.0
G1 Y27.0
G1 X9.0
G1 F300.0 Z-7.0
G1 F800.0 Y53.0
G1 X43.0
G1 Y27.0
G1 X9.0
G1 F300.0 Z-7.4
G1 F800.0 Y53.0
G1 X43.0
G1 Y27.0
G1 X9.0
G1 F300.0 Z-7.8
G1 F800.0 Y53.0
G1 X43.0
G1 Y27.0
G1 X9.0
G1 F300.0 Z-8.0
G1 F800.0 Y53.0
G1 X43.0
G1 Y27.0
G1 X9.0
( a1 )
S1000
G0 Z3.0
G0 X-34.0 Y48.0
G0 Z0.0
G1 F300.0 Z-1.4
G1 F800.0 Y49.0
G1 X-28.0
G1 Y48.0
G1 X-34.0
G1 F300.0 Z-1.8
G1 F800.0 Y49.0
G1 X-28.0
G1 Y48.0
G1 X-34.0
G1 F300.0 Z-2.2
G1 F800.0 Y49.0
G1 X-28.0
G1 Y48.0
G1 X-34.0
G1 F300.0 Z-2.6
G1 F800.0 Y49.0
G1 X-28.0
G1 Y48.0
G1 X-34.0
G1 F300.0 Z-3.0
G1 F800.0 Y49.0
G1 X-28.0
G1 Y48.0
G1 X-34.0
G1 F300.0 Z-3.4
G1 F800.0 Y49.0
G1 X-28.0
G1 Y48.0
G1 X-34.0
G1 F300.0 Z-3.8
G1 F800.0 Y49.0
G1 X-28.0
G1 Y48.0
G1 X-34.0
G1 F300.0 Z-4.2
G1 F800.0 Y49.0
G1 X-28.0
G1 Y48.0
G1 X-34.0
G1 F300.0 Z-4.6
G1 F800.0 Y49.0
G1 X-28.0
G1 Y48.0
G1 X-34.0
G1 F300.0 Z-5.0
G1 F800.0 Y49.0
G1 X-28.0
G1 Y48.0
G1 X-34.0
G1 F300.0 Z-5.4
G1 F800.0 Y49.0
G1 X-28.0
G1 Y48.0
G1 X-34.0
G1 F300.0 Z-5.8
G1 F800.0 Y49.0
G1 X-28.0
G1 Y48.0
G1 X-34.0
G1 F300.0 Z-6.2
G1 F800.0 Y49.0
G1 X-28.0
G1 Y48.0
G1 X-34.0
G1 F300.0 Z-6.6
G1 F800.0 Y49.0
G1 X-28.0
G1 Y48.0
G1 X-34.0
G1 F300.0 Z-7.0
G1 F800.0 Y49.0
G1 X-28.0
G1 Y48.0
G1 X-34.0
G1 F300.0 Z-7.4
G1 F800.0 Y49.0
G1 X-28.0
G1 Y48.0
G1 X-34.0
G1 F300.0 Z-7.8
G1 F800.0 Y49.0
G1 X-28.0
G1 Y48.0
G1 X-34.0
G1 F300.0 Z-8.0
G1 F800.0 Y49.0
G1 X-28.0
G1 Y48.0
G1 X-34.0
( a2 )
S1000
G0 Z3.0
G0 Y31.0
G0 Z0.0
G1 F300.0 Z-1.4
G1 F800.0 Y32.0
G1 X-28.0
G1 Y31.0
G1 X-34.0
G1 F300.0 Z-1.8
G1 F800.0 Y32.0
G1 X-28.0
G1 Y31.0
G1 X-34.0
G1 F300.0 Z-2.2
G1 F800.0 Y32.0
G1 X-28.0
G1 Y31.0
G1 X-34.0
G1 F300.0 Z-2.6
G1 F800.0 Y32.0
G1 X-28.0
G1 Y31.0
G1 X-34.0
G1 F300.0 Z-3.0
G1 F800.0 Y32.0
G1 X-28.0
G1 Y31.0
G1 X-34.0
G1 F300.0 Z-3.4
G1 F800.0 Y32.0
G1 X-28.0
G1 Y31.0
G1 X-34.0
G1 F300.0 Z-3.8
G1 F800.0 Y32.0
G1 X-28.0
G1 Y31.0
G1 X-34.0
G1 F300.0 Z-4.2
G1 F800.0 Y32.0
G1 X-28.0
G1 Y31.0
G1 X-34.0
G1 F300.0 Z-4.6
G1 F800.0 Y32.0
G1 X-28.0
G1 Y31.0
G1 X-34.0
G1 F300.0 Z-5.0
G1 F800.0 Y32.0
G1 X-28.0
G1 Y31.0
G1 X-34.0
G1 F300.0 Z-5.4
G1 F800.0 Y32.0
G1 X-28.0
G1 Y31.0
G1 X-34.0
G1 F300.0 Z-5.8
G1 F800.0 Y32.0
G1 X-28.0
G1 Y31.0
G1 X-34.0
G1 F300.0 Z-6.2
G1 F800.0 Y32.0
G1 X-28.0
G1 Y31.0
G1 X-34.0
G1 F300.0 Z-6.6
G1 F800.0 Y32.0
G1 X-28.0
G1 Y31.0
G1 X-34.0
G1 F300.0 Z-7.0
G1 F800.0 Y32.0
G1 X-28.0
G1 Y31.0
G1 X-34.0
G1 F300.0 Z-7.4
G1 F800.0 Y32.0
G1 X-28.0
G1 Y31.0
G1 X-34.0
G1 F300.0 Z-7.8
G1 F800.0 Y32.0
G1 X-28.0
G1 Y31.0
G1 X-34.0
G1 F300.0 Z-8.0
G1 F800.0 Y32.0
G1 X-28.0
G1 Y31.0
G1 X-34.0
( a3 )
S1000
G0 Z-1.4
G1 F300.0 Y32.0
G1 F800.0 Y48.0
G1 X-33.0
G1 Y32.0
G1 X-34.0
G1 F300.0 Z-1.8
G1 F800.0 Y48.0
G1 X-33.0
G1 Y32.0
G1 X-34.0
G1 F300.0 Z-2.2
G1 F800.0 Y48.0
G1 X-33.0
G1 Y32.0
G1 X-34.0
G1 F300.0 Z-2.6
G1 F800.0 Y48.0
G1 X-33.0
G1 Y32.0
G1 X-34.0
G1 F300.0 Z-3.0
G1 F800.0 Y48.0
G1 X-33.0
G1 Y32.0
G1 X-34.0
G1 F300.0 Z-3.4
G1 F800.0 Y48.0
G1 X-33.0
G1 Y32.0
G1 X-34.0
G1 F300.0 Z-3.8
G1 F800.0 Y48.0
G1 X-33.0
G1 Y32.0
G1 X-34.0
G1 F300.0 Z-4.2
G1 F800.0 Y48.0
G1 X-33.0
G1 Y32.0
G1 X-34.0
G1 F300.0 Z-4.6
G1 F800.0 Y48.0
G1 X-33.0
G1 Y32.0
G1 X-34.0
G1 F300.0 Z-5.0
G1 F800.0 Y48.0
G1 X-33.0
G1 Y32.0
G1 X-34.0
G1 F300.0 Z-5.4
G1 F800.0 Y48.0
G1 X-33.0
G1 Y32.0
G1 X-34.0
G1 F300.0 Z-5.8
G1 F800.0 Y48.0
G1 X-33.0
G1 Y32.0
G1 X-34.0
G1 F300.0 Z-6.2
G1 F800.0 Y48.0
G1 X-33.0
G1 Y32.0
G1 X-34.0
G1 F300.0 Z-6.6
G1 F800.0 Y48.0
G1 X-33.0
G1 Y32.0
G1 X-34.0
G1 F300.0 Z-7.0
G1 F800.0 Y48.0
G1 X-33.0
G1 Y32.0
G1 X-34.0
G1 F300.0 Z-7.4
G1 F800.0 Y48.0
G1 X-33.0
G1 Y32.0
G1 X-34.0
G1 F300.0 Z-7.8
G1 F800.0 Y48.0
G1 X-33.0
G1 Y32.0
G1 X-34.0
G1 F300.0 Z-8.0
G1 F800.0 Y48.0
G1 X-33.0
G1 Y32.0
G1 X-34.0
( a4 )
S1000
G0 Z3.0
G0 X-22.0 Y48.0
G0 Z0.0
G1 F300.0 Z-1.4
G1 F800.0 Y49.0
G1 X-16.0
G1 Y48.0
G1 X-22.0
G1 F300.0 Z-1.8
G1 F800.0 Y49.0
G1 X-16.0
G1 Y48.0
G1 X-22.0
G1 F300.0 Z-2.2
G1 F800.0 Y49.0
G1 X-16.0
G1 Y48.0
G1 X-22.0
G1 F300.0 Z-2.6
G1 F800.0 Y49.0
G1 X-16.0
G1 Y48.0
G1 X-22.0
G1 F300.0 Z-3.0
G1 F800.0 Y49.0
G1 X-16.0
G1 Y48.0
G1 X-22.0
G1 F300.0 Z-3.4
G1 F800.0 Y49.0
G1 X-16.0
G1 Y48.0
G1 X-22.0
G1 F300.0 Z-3.8
G1 F800.0 Y49.0
G1 X-16.0
G1 Y48.0
G1 X-22.0
G1 F300.0 Z-4.2
G1 F800.0 Y49.0
G1 X-16.0
G1 Y48.0
G1 X-22.0
G1 F300.0 Z-4.6
G1 F800.0 Y49.0
G1 X-16.0
G1 Y48.0
G1 X-22.0
G1 F300.0 Z-5.0
G1 F800.0 Y49.0
G1 X-16.0
G1 Y48.0
G1 X-22.0
G1 F300.0 Z-5.4
G1 F800.0 Y49.0
G1 X-16.0
G1 Y48.0
G1 X-22.0
G1 F300.0 Z-5.8
G1 F800.0 Y49.0
G1 X-16.0
G1 Y48.0
G1 X-22.0
G1 F300.0 Z-6.2
G1 F800.0 Y49.0
G1 X-16.0
G1 Y48.0
G1 X-22.0
G1 F300.0 Z-6.6
G1 F800.0 Y49.0
G1 X-16.0
G1 Y48.0
G1 X-22.0
G1 F300.0 Z-7.0
G1 F800.0 Y49.0
G1 X-16.0
G1 Y48.0
G1 X-22.0
G1 F300.0 Z-7.4
G1 F800.0 Y49.0
G1 X-16.0
G1 Y48.0
G1 X-22.0
G1 F300.0 Z-7.8
G1 F800.0 Y49.0
G1 X-16.0
G1 Y48.0
G1 X-22.0
G1 F300.0 Z-8.0
G1 F800.0 Y49.0
G1 X-16.0
G1 Y48.0
G1 X-22.0
( a5 )
S1000
G0 Z3.0
G0 Y31.0
G0 Z0.0
G1 F300.0 Z-1.4
G1 F800.0 Y32.0
G1 X-16.0
G1 Y31.0
G1 X-22.0
G1 F300.0 Z-1.8
G1 F800.0 Y32.0
G1 X-16.0
G1 Y31.0
G1 X-22.0
G1 F300.0 Z-2.2
G1 F800.0 Y32.0
G1 X-16.0
G1 Y31.0
G1 X-22.0
G1 F300.0 Z-2.6
G1 F800.0 Y32.0
G1 X-16.0
G1 Y31.0
G1 X-22.0
G1 F300.0 Z-3.0
G1 F800.0 Y32.0
G1 X-16.0
G1 Y31.0
G1 X-22.0
G1 F300.0 Z-3.4
G1 F800.0 Y32.0
G1 X-16.0
G1 Y31.0
G1 X-22.0
G1 F300.0 Z-3.8
G1 F800.0 Y32.0
G1 X-16.0
G1 Y31.0
G1 X-22.0
G1 F300.0 Z-4.2
G1 F800.0 Y32.0
G1 X-16.0
G1 Y31.0
G1 X-22.0
G1 F300.0 Z-4.6
G1 F800.0 Y32.0
G1 X-16.0
G1 Y31.0
G1 X-22.0
G1 F300.0 Z-5.0
G1 F800.0 Y32.0
G1 X-16.0
G1 Y31.0
G1 X-22.0
G1 F300.0 Z-5.4
G1 F800.0 Y32.0
G1 X-16.0
G1 Y31.0
G1 X-22.0
G1 F300.0 Z-5.8
G1 F800.0 Y32.0
G1 X-16.0
G1 Y31.0
G1 X-22.0
G1 F300.0 Z-6.2
G1 F800.0 Y32.0
G1 X-16.0
G1 Y31.0
G1 X-22.0
G1 F300.0 Z-6.6
G1 F800.0 Y32.0
G1 X-16.0
G1 Y31.0
G1 X-22.0
G1 F300.0 Z-7.0
G1 F800.0 Y32.0
G1 X-16.0
G1 Y31.0
G1 X-22.0
G1 F300.0 Z-7.4
G1 F800.0 Y32.0
G1 X-16.0
G1 Y31.0
G1 X-22.0
G1 F300.0 Z-7.8
G1 F800.0 Y32.0
G1 X-16.0
G1 Y31.0
G1 X-22.0
G1 F300.0 Z-8.0
G1 F800.0 Y32.0
G1 X-16.0
G1 Y31.0
G1 X-22.0
( a6 )
S1000
G0 Z3.0
G0 X-17.0 Y32.0
G0 Z0.0
G1 F300.0 Z-1.4
G1 F800.0 Y48.0
G1 X-16.0
G1 Y32.0
G1 X-17.0
G1 F300.0 Z-1.8
G1 F800.0 Y48.0
G1 X-16.0
G1 Y32.0
G1 X-17.0
G1 F300.0 Z-2.2
G1 F800.0 Y48.0
G1 X-16.0
G1 Y32.0
G1 X-17.0
G1 F300.0 Z-2.6
G1 F800.0 Y48.0
G1 X-16.0
G1 Y32.0
G1 X-17.0
G1 F300.0 Z-3.0
G1 F800.0 Y48.0
G1 X-16.0
G1 Y32.0
G1 X-17.0
G1 F300.0 Z-3.4
G1 F800.0 Y48.0
G1 X-16.0
G1 Y32.0
G1 X-17.0
G1 F300.0 Z-3.8
G1 F800.0 Y48.0
G1 X-16.0
G1 Y32.0
G1 X-17.0
G1 F300.0 Z-4.2
G1 F800.0 Y48.0
G1 X-16.0
G1 Y32.0
G1 X-17.0
G1 F300.0 Z-4.6
G1 F800.0 Y48.0
G1 X-16.0
G1 Y32.0
G1 X-17.0
G1 F300.0 Z-5.0
G1 F800.0 Y48.0
G1 X-16.0
G1 Y32.0
G1 X-17.0
G1 F300.0 Z-5.4
G1 F800.0 Y48.0
G1 X-16.0
G1 Y32.0
G1 X-17.0
G1 F300.0 Z-5.8
G1 F800.0 Y48.0
G1 X-16.0
G1 Y32.0
G1 X-17.0
G1 F300.0 Z-6.2
G1 F800.0 Y48.0
G1 X-16.0
G1 Y32.0
G1 X-17.0
G1 F300.0 Z-6.6
G1 F800.0 Y48.0
G1 X-16.0
G1 Y32.0
G1 X-17.0
G1 F300.0 Z-7.0
G1 F800.0 Y48.0
G1 X-16.0
G1 Y32.0
G1 X-17.0
G1 F300.0 Z-7.4
G1 F800.0 Y48.0
G1 X-16.0
G1 Y32.0
G1 X-17.0
G1 F300.0 Z-7.8
G1 F800.0 Y48.0
G1 X-16.0
G1 Y32.0
G1 X-17.0
G1 F300.0 Z-8.0
G1 F800.0 Y48.0
G1 X-16.0
G1 Y32.0
G1 X-17.0
( acenter )
S1000
G0 Z3.0
G0 X-27.0 Y38.0
G0 Z0.0
G1 F300.0 Z-1.4
G1 F800.0 Y42.0
G1 X-23.0
G1 Y38.0
G1 X-27.0
G1 F300.0 Z-1.8
G1 F800.0 Y42.0
G1 X-23.0
G1 Y38.0
G1 X-27.0
G1 F300.0 Z-2.2
G1 F800.0 Y42.0
G1 X-23.0
G1 Y38.0
G1 X-27.0
G1 F300.0 Z-2.6
G1 F800.0 Y42.0
G1 X-23.0
G1 Y38.0
G1 X-27.0
G1 F300.0 Z-3.0
G1 F800.0 Y42.0
G1 X-23.0
G1 Y38.0
G1 X-27.0
G1 F300.0 Z-3.4
G1 F800.0 Y42.0
G1 X-23.0
G1 Y38.0
G1 X-27.0
G1 F300.0 Z-3.8
G1 F800.0 Y42.0
G1 X-23.0
G1 Y38.0
G1 X-27.0
G1 F300.0 Z-4.2
G1 F800.0 Y42.0
G1 X-23.0
G1 Y38.0
G1 X-27.0
G1 F300.0 Z-4.6
G1 F800.0 Y42.0
G1 X-23.0
G1 Y38.0
G1 X-27.0
G1 F300.0 Z-5.0
G1 F800.0 Y42.0
G1 X-23.0
G1 Y38.0
G1 X-27.0
G1 F300.0 Z-5.4
G1 F800.0 Y42.0
G1 X-23.0
G1 Y38.0
G1 X-27.0
G1 F300.0 Z-5.8
G1 F800.0 Y42.0
G1 X-23.0
G1 Y38.0
G1 X-27.0
G1 F300.0 Z-6.2
G1 F800.0 Y42.0
G1 X-23.0
G1 Y38.0
G1 X-27.0
G1 F300.0 Z-6.6
G1 F800.0 Y42.0
G1 X-23.0
G1 Y38.0
G1 X-27.0
G1 F300.0 Z-7.0
G1 F800.0 Y42.0
G1 X-23.0
G1 Y38.0
G1 X-27.0
G1 F300.0 Z-7.4
G1 F800.0 Y42.0
G1 X-23.0
G1 Y38.0
G1 X-27.0
G1 F300.0 Z-7.8
G1 F800.0 Y42.0
G1 X-23.0
G1 Y38.0
G1 X-27.0
G1 F300.0 Z-8.0
G1 F800.0 Y42.0
G1 X-23.0
G1 Y38.0
G1 X-27.0
( kp1 )
S1000
G0 Z3.0
G0 X-36.0 Y-1.0
G0 Z0.0
G1 F300.0 Z-1.4
G1 F800.0 Y5.0
G1 X-10.0
G1 Y-1.0
G1 X-36.0
G1 F300.0 Z-1.8
G1 F800.0 Y5.0
G1 X-10.0
G1 Y-1.0
G1 X-36.0
G1 F300.0 Z-2.2
G1 F800.0 Y5.0
G1 X-10.0
G1 Y-1.0
G1 X-36.0
G1 F300.0 Z-2.6
G1 F800.0 Y5.0
G1 X-10.0
G1 Y-1.0
G1 X-36.0
G1 F300.0 Z-3.0
G1 F800.0 Y5.0
G1 X-10.0
G1 Y-1.0
G1 X-36.0
G1 F300.0 Z-3.4
G1 F800.0 Y5.0
G1 X-10.0
G1 Y-1.0
G1 X-36.0
G1 F300.0 Z-3.8
G1 F800.0 Y5.0
G1 X-10.0
G1 Y-1.0
G1 X-36.0
G1 F300.0 Z-4.2
G1 F800.0 Y5.0
G1 X-10.0
G1 Y-1.0
G1 X-36.0
G1 F300.0 Z-4.6
G1 F800.0 Y5.0
G1 X-10.0
G1 Y-1.0
G1 X-36.0
G1 F300.0 Z-5.0
G1 F800.0 Y5.0
G1 X-10.0
G1 Y-1.0
G1 X-36.0
G1 F300.0 Z-5.4
G1 F800.0 Y5.0
G1 X-10.0
G1 Y-1.0
G1 X-36.0
G1 F300.0 Z-5.8
G1 F800.0 Y5.0
G1 X-10.0
G1 Y-1.0
G1 X-36.0
G1 F300.0 Z-6.2
G1 F800.0 Y5.0
G1 X-10.0
G1 Y-1.0
G1 X-36.0
G1 F300.0 Z-6.6
G1 F800.0 Y5.0
G1 X-10.0
G1 Y-1.0
G1 X-36.0
G1 F300.0 Z-7.0
G1 F800.0 Y5.0
G1 X-10.0
G1 Y-1.0
G1 X-36.0
G1 F300.0 Z-7.4
G1 F800.0 Y5.0
G1 X-10.0
G1 Y-1.0
G1 X-36.0
G1 F300.0 Z-7.8
G1 F800.0 Y5.0
G1 X-10.0
G1 Y-1.0
G1 X-36.0
G1 F300.0 Z-8.0
G1 F800.0 Y5.0
G1 X-10.0
G1 Y-1.0
G1 X-36.0
G0 Z3.0
M5
M30
